X: 10104
T: SOPHIE'S HAMBO
C: Bob McQuillen 6 Nov 93
B: Bob's Note Book 10 #104
%R: hambo, waltz
Z: 2020 John Chambers <jc:trillian.mit.edu>
M: 3/4
L: 1/8
K: D
FG \
| A2 AB AG | F2 A2 de | f2 ag fe | f2 d2 fe | d2 de dc | B2 A2 FA | A2 G3 F | E4 FG |
| A2 AB AG | F2 A2 de | fe fg ag | f2 d2 fe | d2 ed cB | B2 A2 fa | (3(gag) f2 e2 | d4 ||
|| dc \
| B2 Bc dB | c2 f2 dc | B2 Bd cB | cA F2 dc | B2 Bc dB | c2 fg fd | Bc d2 e2 | f4 ag |
| f2 de dc | c2 B2 ef | g2 ef ed | c2 A2 FA | Bd g2 dB | Ad f2 ag | fe d2 c2 | d4 |]
%%begintext align
%% Sophie is the 3 year-old
%% daughter of Jane and Peter Orzechowski, of Newport, NH -
%% She's adorable, and since her mom plays Swedish-style
%% fiddle music in addition to her New England repertoire, I thought
%% she should have a hambo to call her own. Jane thought
%% so, too! Much love to you, Sophie --
%%endtext

%%sep 1 1 500

%%sep 1 1 500

